X: 1
T: Dans Fisel
M: 4/4
L: 1/8
R: reel
K: Bmin
BA dc de ~B2|de cA B2 ~B2|(3ABc dc de ~B2|de cA ~B2 BA|!
Bf ef ge ~f2|(3efg ~a2 (3gfe fd|~B2 dc de ~B2|de cA ~B2 BA|!
Bf ef ga ~f2|(3efg ~a2 (3gfe fd|~B2 dc de ~B2|de cA B4||!
